X: 42098
T: Wandering Road, The
R: slip jig
M: 9/8
K: Aminor
EGA cEA AGA|AGE GAc dcd|EGA cEA AGA|CFA DGB cBG|
EGA cEA AGA|AGE GAc dcd|DGA cDA AGA|CFA DGB cde|

